_includes/icons/ios-mailbox-closed-flag-up.svg

<svg fill="#666" height="50" viewBox="0 0 50 50" width="50" xmlns="http://www.w3.org/2000/svg"><path d="m31 4v2.8125c-.007812.0625-.007812.125 0 .1875v3h-14c-4.957031 0-9 4.042969-9 9v16c0 .550781.449219 1 1 1h19v10h2v-10h2v10h2v-10h13c.550781 0 1-.449219 1-1v-16c0-4.957031-4.042969-9-9-9h-4v2h4c3.878906 0 7 3.121094 7 7v15h-20v-15c0-2.828125-1.324219-5.347656-3.375-7h8.375v5.28125c-.597656.347656-1 .980469-1 1.71875 0 1.105469.894531 2 2 2s2-.894531 2-2c0-.738281-.402344-1.371094-1-1.71875v-9.28125h4v-4zm-14 8c3.878906 0 7 3.121094 7 7v15h-14v-15c0-3.878906 3.121094-7 7-7zm-3.28125 8c-.550781.078125-.9375.589844-.859375 1.140625s.589844.9375 1.140625.859375h6c.359375.003906.695313-.183594.878906-.496094.179688-.3125.179688-.695312 0-1.007812-.183593-.3125-.519531-.5-.878906-.496094h-6c-.03125 0-.0625 0-.09375 0s-.0625 0-.09375 0-.0625 0-.09375 0z"/></svg>

<svg xmlns="http://www.w3.org/2000/svg" viewBox="0 0 50 50" width="50" height="50" fill="#666"><path d="M 31 4 L 31 6.8125 C 30.992188 6.875 30.992188 6.9375 31 7 L 31 10 L 17 10 C 12.042969 10 8 14.042969 8 19 L 8 35 C 8 35.550781 8.449219 36 9 36 L 28 36 L 28 46 L 30 46 L 30 36 L 32 36 L 32 46 L 34 46 L 34 36 L 47 36 C 47.550781 36 48 35.550781 48 35 L 48 19 C 48 14.042969 43.957031 10 39 10 L 35 10 L 35 12 L 39 12 C 42.878906 12 46 15.121094 46 19 L 46 34 L 26 34 L 26 19 C 26 16.171875 24.675781 13.652344 22.625 12 L 31 12 L 31 17.28125 C 30.402344 17.628906 30 18.261719 30 19 C 30 20.105469 30.894531 21 32 21 C 33.105469 21 34 20.105469 34 19 C 34 18.261719 33.597656 17.628906 33 17.28125 L 33 8 L 37 8 L 37 4 Z M 17 12 C 20.878906 12 24 15.121094 24 19 L 24 34 L 10 34 L 10 19 C 10 15.121094 13.121094 12 17 12 Z M 13.71875 20 C 13.167969 20.078125 12.78125 20.589844 12.859375 21.140625 C 12.9375 21.691406 13.449219 22.078125 14 22 L 20 22 C 20.359375 22.003906 20.695313 21.816406 20.878906 21.503906 C 21.058594 21.191406 21.058594 20.808594 20.878906 20.496094 C 20.695313 20.183594 20.359375 19.996094 20 20 L 14 20 C 13.96875 20 13.9375 20 13.90625 20 C 13.875 20 13.84375 20 13.8125 20 C 13.78125 20 13.75 20 13.71875 20 Z"/></svg>
